X:1
T:Title
%%score ( 1 2 ) { 3 | 4 }
L:1/8
Q:1/4=110
M:4/4
K:Ab
V:1 treble nm="Grand Piano, Soprano"
V:2 treble 
V:3 bass nm="Choir Pad, San Jose, 87.87.87 D"
V:4 bass 
V:1
 [CA]3 [CA] [CA]2 [CE]2 | [Ec]3 [Ec] [Ec]2 [CA]2 | [EB]3 [EB] [EB][EB][CA][EB] | [Ec]6 z2 | %4
w: By~Susan~M.~Orwig~Hoffman,~1883 * * *||||
 [Ee]2 [Ec]2 [CA]2 [CE]2 | [DF]2 [FA]2 [Fd]2 [Fd]2 | [Ec]3 [Ec] cd[Ec][DB] | [CA]2 [B,G]2 [CA]4 | %8
w: ||||
 [DF]2 [DF]2 [DF]2 [DF]2 | [CE]2 [CE]2 [CE]2 [CA]2 | [EB]3 [EB] [EB][EB][CA][EB] | [Ec]6 z2 | %12
w: ||||
 [DF]2 [DF]2 [DF]2 [DF]2 | [CE]2 [CE]2 [CE]2 [CE]2 | [DG]3 [DG] [DG][DG][DF][DG] | [CA]6 z2 | %16
w: ||||
 [CA]2 [CA]2 [CA]2 [CE]2 | [Ec]2 [Ec]2 [Ec]2 [CA]2 | [Ee]3 [Ee] [Ee][Ee][Ee][Ee] | [Ee]8 | %20
w: ||||
 [Ee]2 [Ec]2 [CA]2 [CE]2 | [DF]2 [FA]2 [Fd]2 [Fd]2 | [Ec]3 [Ec] cd[Ec][DB] | [CA]2 [B,G]2 [CA]4- | %24
w: ||||
 [CA]4 z4 |] %25
w: |
V:2
 x8 | x8 | x8 | x8 | x8 | x8 | z4 E2 z2 | x8 | x8 | x8 | x8 | x8 | x8 | x8 | x8 | x8 | x8 | x8 | %18
 x8 | x8 | x8 | x8 | z4 E2 z2 | x8 | x8 |] %25
V:3
 E,3 E, E,2 A,2 | A,3 A, A,2 E,2 | G,3 G, G,G,A,G, | A,6 z2 | C2 A,2 E,2 A,2 | A,2 D2 A,2 A,2 | %6
 A,3 A, A,G,A,F, | E,2 E,2 E,4 | A,2 A,2 A,2 A,2 | A,2 A,2 A,2 A,2 | G,3 G, G,G,A,G, | A,6 z2 | %12
 A,2 A,2 A,2 A,2 | A,2 A,2 A,2 A,2 | B,3 B, B,B,B,B, | A,6 z2 | E,2 E,2 E,2 A,2 | A,2 A,2 A,2 E,2 | %18
 C3 C CCCC | C8 | C2[K:bass] A,2 E,2 A,2 | A,2 D2 A,2 A,2 | A,3 A, A,G,A,F, | E,2 E,2 E,4- | %24
 E,4 z4 |] %25
V:4
 A,,3 A,, A,,2 A,,2 | A,,3 A,, A,,2 A,,2 | E,3 E, E,E,F,E, | A,,6 z2 | A,,2 A,,2 A,,2 A,,2 | %5
 D,2 D,2 D,2 D,2 | A,,3 A,, A,,B,,C,D, | z4 A,,4 | D,2 D,2 D,2 D,2 | A,,2 A,,2 A,,2 A,,2 | %10
 E,3 E, E,E,F,E, | A,,6 z2 | D,2 D,2 D,2 D,2 | A,,2 A,,2 A,,2 A,,2 | E,3 E, E,E,E,E, | A,,6 z2 | %16
 A,,2 A,,2 A,,2 A,,2 | A,,2 A,,2 A,,2 A,,2 | A,3 A, A,A,A,A, | A,8 | A,,2 A,,2 A,,2 A,,2 | %21
 D,2 D,2 D,2 D,2 | A,,3 A,, A,,B,,C,D, | z4 A,,4- | A,,4 z4 |] %25

